Newaita-dark/apps/48/psi.svg

<svg height="48pt" viewBox="0 0 48 48" width="48pt" xmlns="http://www.w3.org/2000/svg" xmlns:xlink="http://www.w3.org/1999/xlink"><linearGradient id="a" gradientUnits="userSpaceOnUse" x1="23.81478" x2="23.81478" y1="41.9102775" y2="43.89484350005"><stop offset="0" stop-opacity=".27451"/><stop offset="1" stop-opacity="0"/></linearGradient><linearGradient id="b"><stop offset="0" stop-opacity=".313725"/><stop offset=".222222" stop-opacity=".27451"/><stop offset="1" stop-opacity="0"/></linearGradient><radialGradient id="c" cx="450.908936" cy="189.579361" gradientTransform="matrix(.00000026 -.117199 -.210958 -.00000015 63.807877 95.252372)" gradientUnits="userSpaceOnUse" r="21.166656" xlink:href="#b"/><radialGradient id="d" cx="450.908936" cy="189.579361" gradientTransform="matrix(-.00000026 .117199 .210958 .00000015 -16.178335 -11.431845)" gradientUnits="userSpaceOnUse" r="21.166656" xlink:href="#b"/><radialGradient id="e" cx="450.908936" cy="189.579361" gradientTransform="matrix(-.00000026 -.117199 .210958 -.00000015 -16.178335 95.252372)" gradientUnits="userSpaceOnUse" r="21.166656" xlink:href="#b"/><radialGradient id="f" cx="450.908936" cy="189.579361" gradientTransform="matrix(.00000026 .117199 -.210958 .00000015 63.807874 -11.431846)" gradientUnits="userSpaceOnUse" r="21.166656" xlink:href="#b"/><linearGradient id="g"><stop offset="0" stop-color="#90a4ae"/><stop offset="1" stop-color="#b0bec5"/></linearGradient><linearGradient id="h" gradientUnits="userSpaceOnUse" x1="23.814816" x2="23.814816" xlink:href="#g" y1="42.05096580616" y2="4.34417266504"/><linearGradient id="i" gradientUnits="userSpaceOnUse" x1="1440.000168" x2="1440.000168" xlink:href="#g" y1="655.11812674541" y2="175.11810098163"/><path d="m23.320312 41.910156h.992188v1.929688h-.992188zm0 0" fill="url(#a)"/><path d="m24.3125 41.910156h3.96875v-1.984375h-3.96875zm0 0" fill="url(#c)"/><path d="m23.320312 41.910156h-3.972656v1.984375h3.972656zm0 0" fill="url(#d)"/><path d="m23.320312 41.910156h-3.972656v-1.984375h3.972656zm0 0" fill="url(#e)"/><path d="m24.3125 41.910156h3.96875v1.984375h-3.96875zm0 0" fill="url(#f)"/><path d="m22.824219 4.34375c-1.101563 0-1.984375.886719-1.984375 1.984375v21.378906c-4.035156-1.257812-6.949219-5.011719-6.949219-9.472656 0-4.464844-3.492187-8.660156-7.542969-8.691406-.132812 0-.261718.003906-.394531.011719-3.222656.191406-3.96875 4.710937 0 4.835937 1.738281.125 2.976563 1.988281 2.976563 3.84375 0 7.226563 5.097656 13.21875 11.910156 14.589844v7.242187c0 1.097656.882812 1.984375 1.984375 1.984375h1.984375c1.097656 0 1.984375-.886719 1.984375-1.984375v-7.242187c6.808593-1.371094 11.90625-7.363281 11.90625-14.589844h-4.960938c0 4.460937-2.914062 8.214844-6.945312 9.472656v-21.378906c0-1.097656-.886719-1.984375-1.984375-1.984375zm0 0" fill="url(#h)"/><path d="m22.824219 4.34375c-1.101563 0-1.984375.886719-1.984375 1.984375v.496094c0-1.097657.882812-1.984375 1.984375-1.984375h1.984375c1.097656 0 1.984375.886718 1.984375 1.984375v-.496094c0-1.097656-.886719-1.984375-1.984375-1.984375zm-16.476563 5.199219c-.132812 0-.261718.003906-.394531.011719-1.808594.109374-2.835937 1.578124-2.691406 2.871093.128906-1.148437 1.113281-2.28125 2.691406-2.375.132813-.007812.261719-.011719.394531-.011719 4.050782.03125 7.542969 4.226563 7.542969 8.691407 0 4.460937 2.914063 8.214843 6.949219 9.472656v-.496094c-4.035156-1.257812-6.949219-5.011719-6.949219-9.472656 0-4.464844-3.492187-8.660156-7.542969-8.691406zm27.390625 8.691406c0 4.460937-2.914062 8.214844-6.945312 9.472656v.496094c4.03125-1.257813 6.945312-5.011719 6.945312-9.472656h4.953125c.003906-.164063.007813-.328125.007813-.496094zm0 0" fill="#fff" fill-opacity=".392157"/><path d="m3.261719 11.953125c-.121094 1.183594.679687 2.375 2.691406 2.4375 1.738281.125 2.976563 1.988281 2.976563 3.84375 0 7.226563 5.097656 13.21875 11.910156 14.589844v-.449219c-6.8125-1.371094-11.910156-7.363281-11.910156-14.585938 0-1.859374-1.238282-3.722656-2.976563-3.847656-1.753906-.054687-2.589844-.96875-2.691406-1.988281zm35.429687 6.28125c-.207031 7.027344-5.230468 12.796875-11.898437 14.140625v.449219c6.808593-1.371094 11.90625-7.363281 11.90625-14.589844zm-17.851562 21.382813v.449218c0 1.097656.882812 1.984375 1.984375 1.984375h1.984375c1.097656 0 1.984375-.886719 1.984375-1.984375v-.449218c0 1.101562-.886719 1.984374-1.984375 1.984374h-1.984375c-1.101563 0-1.984375-.882812-1.984375-1.984374zm0 0" fill-opacity=".235294"/><path d="m22.824219 4.203125c-1.175781 0-2.125.949219-2.125 2.125v21.183594c-3.882813-1.292969-6.667969-4.945313-6.667969-9.277344 0-4.539063-3.535156-8.796875-7.683594-8.832031-.132812 0-.265625.003906-.402344.011718-1.675781.101563-2.730468 1.332032-2.828124 2.574219-.050782.621094.140624 1.246094.609374 1.71875.464844.476563 1.203126.792969 2.222657.824219h-.003907c.820313.058594 1.527344.527344 2.035157 1.214844.507812.691406.808593 1.59375.808593 2.488281 0 7.253906 5.089844 13.273437 11.910157 14.703125v7.128906c0 1.175782.949219 2.125 2.125 2.125h1.984375c1.171875 0 2.125-.949218 2.125-2.125v-7.128906c6.816406-1.429688 11.90625-7.449219 11.90625-14.703125 0-.074219-.0625-.140625-.140625-.140625h-4.960938c-.078125 0-.140625.066406-.140625.140625 0 4.332031-2.785156 7.984375-6.664062 9.277344v-21.183594c0-1.175781-.953125-2.125-2.125-2.125zm0 .28125h1.984375c1.023437 0 1.84375.820313 1.84375 1.84375v21.378906c0 .046875.019531.085938.054687.113281.039063.027344.082031.035157.125.023438 4.050781-1.265625 6.984375-5.007812 7.042969-9.46875h4.679688c-.066407 7.097656-5.089844 12.960938-11.789063 14.3125-.066406.011719-.113281.070312-.113281.136719v7.242187c0 1.023438-.820313 1.84375-1.84375 1.84375h-1.984375c-1.027344 0-1.84375-.820312-1.84375-1.84375v-7.242187c0-.066407-.050781-.125-.113281-.136719-6.746094-1.359375-11.796876-7.292969-11.796876-14.453125 0-.957031-.316406-1.914063-.863281-2.652344-.546875-.742187-1.328125-1.265625-2.242187-1.332031-.972656-.03125-1.628906-.324219-2.039063-.738281-.40625-.414063-.574219-.953125-.53125-1.503907.089844-1.097656 1.019531-2.222656 2.566407-2.3125.128906-.007812.257812-.011718.386718-.011718 3.953125.03125 7.402344 4.15625 7.402344 8.550781 0 4.523437 2.953125 8.332031 7.046875 9.609375.042969.011719.089844.003906.125-.023438.035156-.027343.058594-.066406.058594-.113281v-21.378906c0-1.023437.816406-1.84375 1.84375-1.84375zm0 0" fill="#212121"/><path d="m1282.239824 175.101398v79.992365c230.214249 0 418.070335 175.101399 438.225891 399.961827h80.149831c-20.155557-269.265639-243.756263-479.954192-518.375722-479.954192zm0 159.984731v79.992365c141.403827 0 257.770674 103.927089 277.138904 239.977096h80.622226c-19.840626-180.455218-171.952092-319.969461-357.76113-319.969461zm0 0" fill="url(#i)" stroke="#212121" stroke-linecap="square" stroke-linejoin="round" stroke-width="11.338583" transform="scale(.0248071)"/></svg>

<?xml version="1.0" encoding="UTF-8"?>
<svg xmlns="http://www.w3.org/2000/svg" xmlns:xlink="http://www.w3.org/1999/xlink" width="48pt" height="48pt" viewBox="0 0 48 48" version="1.1">
<defs>
<linearGradient id="linear0" gradientUnits="userSpaceOnUse" x1="254" y1="233.5" x2="254" y2="254.666672" gradientTransform="matrix(0.093759,0,0,0.093759,-0.00000572259,20.017551)">
<stop offset="0" style="stop-color:rgb(0%,0%,0%);stop-opacity:0.27451;"/>
<stop offset="1" style="stop-color:rgb(0%,0%,0%);stop-opacity:0;"/>
</linearGradient>
<radialGradient id="radial0" gradientUnits="userSpaceOnUse" cx="450.908936" cy="189.579361" fx="450.908936" fy="189.579361" r="21.166656" gradientTransform="matrix(0.000000261256,-0.117199,-0.210958,-0.000000152308,63.807877,95.252372)">
<stop offset="0" style="stop-color:rgb(0%,0%,0%);stop-opacity:0.313725;"/>
<stop offset="0.222222" style="stop-color:rgb(0%,0%,0%);stop-opacity:0.27451;"/>
<stop offset="1" style="stop-color:rgb(0%,0%,0%);stop-opacity:0;"/>
</radialGradient>
<radialGradient id="radial1" gradientUnits="userSpaceOnUse" cx="450.908936" cy="189.579361" fx="450.908936" fy="189.579361" r="21.166656" gradientTransform="matrix(-0.000000261256,0.117199,0.210958,0.000000152308,-16.178335,-11.431845)">
<stop offset="0" style="stop-color:rgb(0%,0%,0%);stop-opacity:0.313725;"/>
<stop offset="0.222222" style="stop-color:rgb(0%,0%,0%);stop-opacity:0.27451;"/>
<stop offset="1" style="stop-color:rgb(0%,0%,0%);stop-opacity:0;"/>
</radialGradient>
<radialGradient id="radial2" gradientUnits="userSpaceOnUse" cx="450.908936" cy="189.579361" fx="450.908936" fy="189.579361" r="21.166656" gradientTransform="matrix(-0.000000261256,-0.117199,0.210958,-0.000000152308,-16.178335,95.252372)">
<stop offset="0" style="stop-color:rgb(0%,0%,0%);stop-opacity:0.313725;"/>
<stop offset="0.222222" style="stop-color:rgb(0%,0%,0%);stop-opacity:0.27451;"/>
<stop offset="1" style="stop-color:rgb(0%,0%,0%);stop-opacity:0;"/>
</radialGradient>
<radialGradient id="radial3" gradientUnits="userSpaceOnUse" cx="450.908936" cy="189.579361" fx="450.908936" fy="189.579361" r="21.166656" gradientTransform="matrix(0.000000261256,0.117199,-0.210958,0.000000152308,63.807874,-11.431846)">
<stop offset="0" style="stop-color:rgb(0%,0%,0%);stop-opacity:0.313725;"/>
<stop offset="0.222222" style="stop-color:rgb(0%,0%,0%);stop-opacity:0.27451;"/>
<stop offset="1" style="stop-color:rgb(0%,0%,0%);stop-opacity:0;"/>
</radialGradient>
<linearGradient id="linear1" gradientUnits="userSpaceOnUse" x1="960" y1="1695.118164" x2="960" y2="175.118118" gradientTransform="matrix(0.0248071,0,0,0.0248071,0,0)">
<stop offset="0" style="stop-color:rgb(56.470588%,64.313725%,68.235294%);stop-opacity:1;"/>
<stop offset="1" style="stop-color:rgb(69.019608%,74.509804%,77.254902%);stop-opacity:1;"/>
</linearGradient>
<linearGradient id="linear2" gradientUnits="userSpaceOnUse" x1="381" y1="-41.666664" x2="381" y2="-168.666656" gradientTransform="matrix(3.779528,0,0,3.779528,0,812.59845)">
<stop offset="0" style="stop-color:rgb(56.470588%,64.313725%,68.235294%);stop-opacity:1;"/>
<stop offset="1" style="stop-color:rgb(69.019608%,74.509804%,77.254902%);stop-opacity:1;"/>
</linearGradient>
</defs>
<g id="surface1">
<path style=" stroke:none;fill-rule:nonzero;fill:url(#linear0);" d="M 23.320312 41.910156 L 24.3125 41.910156 L 24.3125 43.839844 L 23.320312 43.839844 Z M 23.320312 41.910156 "/>
<path style=" stroke:none;fill-rule:nonzero;fill:url(#radial0);" d="M 24.3125 41.910156 L 28.28125 41.910156 L 28.28125 39.925781 L 24.3125 39.925781 Z M 24.3125 41.910156 "/>
<path style=" stroke:none;fill-rule:nonzero;fill:url(#radial1);" d="M 23.320312 41.910156 L 19.347656 41.910156 L 19.347656 43.894531 L 23.320312 43.894531 Z M 23.320312 41.910156 "/>
<path style=" stroke:none;fill-rule:nonzero;fill:url(#radial2);" d="M 23.320312 41.910156 L 19.347656 41.910156 L 19.347656 39.925781 L 23.320312 39.925781 Z M 23.320312 41.910156 "/>
<path style=" stroke:none;fill-rule:nonzero;fill:url(#radial3);" d="M 24.3125 41.910156 L 28.28125 41.910156 L 28.28125 43.894531 L 24.3125 43.894531 Z M 24.3125 41.910156 "/>
<path style=" stroke:none;fill-rule:nonzero;fill:url(#linear1);" d="M 22.824219 4.34375 C 21.722656 4.34375 20.839844 5.230469 20.839844 6.328125 L 20.839844 27.707031 C 16.804688 26.449219 13.890625 22.695312 13.890625 18.234375 C 13.890625 13.769531 10.398438 9.574219 6.347656 9.542969 C 6.214844 9.542969 6.085938 9.546875 5.953125 9.554688 C 2.730469 9.746094 1.984375 14.265625 5.953125 14.390625 C 7.691406 14.515625 8.929688 16.378906 8.929688 18.234375 C 8.929688 25.460938 14.027344 31.453125 20.839844 32.824219 L 20.839844 40.066406 C 20.839844 41.164062 21.722656 42.050781 22.824219 42.050781 L 24.808594 42.050781 C 25.90625 42.050781 26.792969 41.164062 26.792969 40.066406 L 26.792969 32.824219 C 33.601562 31.453125 38.699219 25.460938 38.699219 18.234375 L 33.738281 18.234375 C 33.738281 22.695312 30.824219 26.449219 26.792969 27.707031 L 26.792969 6.328125 C 26.792969 5.230469 25.90625 4.34375 24.808594 4.34375 Z M 22.824219 4.34375 "/>
<path style=" stroke:none;fill-rule:nonzero;fill:rgb(100%,100%,100%);fill-opacity:0.392157;" d="M 22.824219 4.34375 C 21.722656 4.34375 20.839844 5.230469 20.839844 6.328125 L 20.839844 6.824219 C 20.839844 5.726562 21.722656 4.839844 22.824219 4.839844 L 24.808594 4.839844 C 25.90625 4.839844 26.792969 5.726562 26.792969 6.824219 L 26.792969 6.328125 C 26.792969 5.230469 25.90625 4.34375 24.808594 4.34375 Z M 6.347656 9.542969 C 6.214844 9.542969 6.085938 9.546875 5.953125 9.554688 C 4.144531 9.664062 3.117188 11.132812 3.261719 12.425781 C 3.390625 11.277344 4.375 10.144531 5.953125 10.050781 C 6.085938 10.042969 6.214844 10.039062 6.347656 10.039062 C 10.398438 10.070312 13.890625 14.265625 13.890625 18.730469 C 13.890625 23.191406 16.804688 26.945312 20.839844 28.203125 L 20.839844 27.707031 C 16.804688 26.449219 13.890625 22.695312 13.890625 18.234375 C 13.890625 13.769531 10.398438 9.574219 6.347656 9.542969 Z M 33.738281 18.234375 C 33.738281 22.695312 30.824219 26.449219 26.792969 27.707031 L 26.792969 28.203125 C 30.824219 26.945312 33.738281 23.191406 33.738281 18.730469 L 38.691406 18.730469 C 38.695312 18.566406 38.699219 18.402344 38.699219 18.234375 Z M 33.738281 18.234375 "/>
<path style=" stroke:none;fill-rule:nonzero;fill:rgb(0%,0%,0%);fill-opacity:0.235294;" d="M 3.261719 11.953125 C 3.140625 13.136719 3.941406 14.328125 5.953125 14.390625 C 7.691406 14.515625 8.929688 16.378906 8.929688 18.234375 C 8.929688 25.460938 14.027344 31.453125 20.839844 32.824219 L 20.839844 32.375 C 14.027344 31.003906 8.929688 25.011719 8.929688 17.789062 C 8.929688 15.929688 7.691406 14.066406 5.953125 13.941406 C 4.199219 13.886719 3.363281 12.972656 3.261719 11.953125 Z M 38.691406 18.234375 C 38.484375 25.261719 33.460938 31.03125 26.792969 32.375 L 26.792969 32.824219 C 33.601562 31.453125 38.699219 25.460938 38.699219 18.234375 Z M 20.839844 39.617188 L 20.839844 40.066406 C 20.839844 41.164062 21.722656 42.050781 22.824219 42.050781 L 24.808594 42.050781 C 25.90625 42.050781 26.792969 41.164062 26.792969 40.066406 L 26.792969 39.617188 C 26.792969 40.71875 25.90625 41.601562 24.808594 41.601562 L 22.824219 41.601562 C 21.722656 41.601562 20.839844 40.71875 20.839844 39.617188 Z M 20.839844 39.617188 "/>
<path style=" stroke:none;fill-rule:nonzero;fill:rgb(12.941177%,12.941177%,12.941177%);fill-opacity:1;" d="M 22.824219 4.203125 C 21.648438 4.203125 20.699219 5.152344 20.699219 6.328125 L 20.699219 27.511719 C 16.816406 26.21875 14.03125 22.566406 14.03125 18.234375 C 14.03125 13.695312 10.496094 9.4375 6.347656 9.402344 C 6.214844 9.402344 6.082031 9.40625 5.945312 9.414062 C 4.269531 9.515625 3.214844 10.746094 3.117188 11.988281 C 3.066406 12.609375 3.257812 13.234375 3.726562 13.707031 C 4.191406 14.183594 4.929688 14.5 5.949219 14.53125 L 5.945312 14.53125 C 6.765625 14.589844 7.472656 15.058594 7.980469 15.746094 C 8.488281 16.4375 8.789062 17.339844 8.789062 18.234375 C 8.789062 25.488281 13.878906 31.507812 20.699219 32.9375 L 20.699219 40.066406 C 20.699219 41.242188 21.648438 42.191406 22.824219 42.191406 L 24.808594 42.191406 C 25.980469 42.191406 26.933594 41.242188 26.933594 40.066406 L 26.933594 32.9375 C 33.75 31.507812 38.839844 25.488281 38.839844 18.234375 C 38.839844 18.160156 38.777344 18.09375 38.699219 18.09375 L 33.738281 18.09375 C 33.660156 18.09375 33.597656 18.160156 33.597656 18.234375 C 33.597656 22.566406 30.8125 26.21875 26.933594 27.511719 L 26.933594 6.328125 C 26.933594 5.152344 25.980469 4.203125 24.808594 4.203125 Z M 22.824219 4.484375 L 24.808594 4.484375 C 25.832031 4.484375 26.652344 5.304688 26.652344 6.328125 L 26.652344 27.707031 C 26.652344 27.753906 26.671875 27.792969 26.707031 27.820312 C 26.746094 27.847656 26.789062 27.855469 26.832031 27.84375 C 30.882812 26.578125 33.816406 22.835938 33.875 18.375 L 38.554688 18.375 C 38.488281 25.472656 33.464844 31.335938 26.765625 32.6875 C 26.699219 32.699219 26.652344 32.757812 26.652344 32.824219 L 26.652344 40.066406 C 26.652344 41.089844 25.832031 41.910156 24.808594 41.910156 L 22.824219 41.910156 C 21.796875 41.910156 20.980469 41.089844 20.980469 40.066406 L 20.980469 32.824219 C 20.980469 32.757812 20.929688 32.699219 20.867188 32.6875 C 14.121094 31.328125 9.070312 25.394531 9.070312 18.234375 C 9.070312 17.277344 8.753906 16.320312 8.207031 15.582031 C 7.660156 14.839844 6.878906 14.316406 5.964844 14.25 C 4.992188 14.21875 4.335938 13.925781 3.925781 13.511719 C 3.519531 13.097656 3.351562 12.558594 3.394531 12.007812 C 3.484375 10.910156 4.414062 9.785156 5.960938 9.695312 C 6.089844 9.6875 6.21875 9.683594 6.347656 9.683594 C 10.300781 9.714844 13.75 13.839844 13.75 18.234375 C 13.75 22.757812 16.703125 26.566406 20.796875 27.84375 C 20.839844 27.855469 20.886719 27.847656 20.921875 27.820312 C 20.957031 27.792969 20.980469 27.753906 20.980469 27.707031 L 20.980469 6.328125 C 20.980469 5.304688 21.796875 4.484375 22.824219 4.484375 Z M 22.824219 4.484375 "/>
<path style="fill-rule:nonzero;fill:url(#linear2);stroke-width:11.338583;stroke-linecap:square;stroke-linejoin:round;stroke:rgb(12.941177%,12.941177%,12.941177%);stroke-opacity:1;stroke-miterlimit:4;" d="M 1282.239824 175.101398 L 1282.239824 255.093763 C 1512.454073 255.093763 1700.310159 430.195162 1720.465715 655.05559 L 1800.615546 655.05559 C 1780.459989 385.789951 1556.859283 175.101398 1282.239824 175.101398 Z M 1282.239824 335.086129 L 1282.239824 415.078494 C 1423.643651 415.078494 1540.010498 519.005583 1559.378728 655.05559 L 1640.000954 655.05559 C 1620.160328 474.600372 1468.048862 335.086129 1282.239824 335.086129 Z M 1282.239824 335.086129 " transform="matrix(0.0248071,0,0,0.0248071,0,0)"/>
</g>
</svg>
